X:13994
T:Rattling Roaring Willie
M:9/8
L:1/8
K:GMix
d|B2G GAG Bde|f2c AFA c2
d|B2G GAG Bde|gfg B2c d2
e|gfg dBG Bde|f2c AFA c2
e|dBd e2d Bdg|BGB AFA G2|]
